client/public/assets/icons/custom/custom49.svg

<?xml version="1.0"?><svg xmlns="http://www.w3.org/2000/svg" width="100" height="100" viewBox="0 0 100 100"><g fill="#fff"><path d="m50 41c-5 0-9 4-9 9s4 9 9 9 9-4 9-9-4-9-9-9z m0 14c-2.8 0-5-2.2-5-5s2.2-5 5-5 5 2.2 5 5-2.2 5-5 5z m0-35c-16.6 0-30 13.4-30 30s13.4 30 30 30 30-13.4 30-30-13.4-30-30-30z m0 52.9c0 1.2-1 2.1-2.2 2-12.1-1-21.7-10.7-22.8-22.8 0-1.1 0.9-2.1 2.1-2.1h2c1 0 1.9 0.8 2 1.8 0.9 9 8.1 16.2 17.1 17.1 1 0.1 1.8 1 1.8 2v2z m0-7.9c-8.3 0-15-6.7-15-15s6.7-15 15-15 15 6.7 15 15-6.7 15-15 15z m22.9-15h-2c-1 0-1.9-0.8-2-1.8-0.9-9-8.1-16.2-17.1-17.1-1-0.1-1.8-1-1.8-2v-2c0-1.2 1-2.1 2.2-2 12.1 1 21.7 10.7 22.8 22.8 0 1.1-0.9 2.1-2.1 2.1z"></path></g></svg>

<?xml version="1.0" encoding="utf-8"?>
<!-- Generator: Adobe Illustrator 16.0.0, SVG Export Plug-In . SVG Version: 6.00 Build 0)  -->
<!DOCTYPE svg PUBLIC "-//W3C//DTD SVG 1.1//EN" "http://www.w3.org/Graphics/SVG/1.1/DTD/svg11.dtd">
<svg version="1.1" id="Layer_1" xmlns="http://www.w3.org/2000/svg" xmlns:xlink="http://www.w3.org/1999/xlink" x="0px" y="0px"
	 width="100px" height="100px" viewBox="0 0 100 100" enable-background="new 0 0 100 100" xml:space="preserve">
<g>
	<path fill="#FFFFFF" d="M50,41c-5,0-9,4-9,9s4,9,9,9s9-4,9-9S55,41,50,41z M50,55c-2.8,0-5-2.2-5-5s2.2-5,5-5s5,2.2,5,5
		S52.8,55,50,55z"/>
	<path fill="#FFFFFF" d="M50,20c-16.6,0-30,13.4-30,30c0,16.6,13.4,30,30,30c16.6,0,30-13.4,30-30C80,33.4,66.6,20,50,20z M50,72.9
		c0,1.199-1,2.1-2.2,2C35.7,73.9,26.1,64.2,25,52.1c0-1.1,0.9-2.1,2.1-2.1h2c1,0,1.9,0.8,2,1.8C32,60.8,39.2,68,48.2,68.9
		c1,0.1,1.8,1,1.8,2V72.9z M50,65c-8.3,0-15-6.7-15-15s6.7-15,15-15s15,6.7,15,15S58.3,65,50,65z M72.9,50h-2c-1,0-1.9-0.8-2-1.8
		C68,39.2,60.8,32,51.8,31.1c-1-0.1-1.8-1-1.8-2v-2c0-1.2,1-2.1,2.2-2c12.1,1,21.7,10.7,22.8,22.8C75,49,74.1,50,72.9,50z"/>
</g>
</svg>
